src/components/Header/spbflogo.svg

<svg xmlns="http://www.w3.org/2000/svg" width="500" height="238" viewBox="0 0 500 238">
  <path fill="#00dd3b" fill-rule="evenodd" d="M35.7655267,151.948454 C43.2183786,151.948454 49.7944244,149.758614 55.2013954,145.232945 C60.7545007,140.707276 63.5310534,135.45166 63.5310534,129.320109 C63.5310534,109.46556 40.4418259,107.129731 31.0892275,102.458072 C23.9286443,98.3703711 28.6049435,90.9249154 35.7655267,90.9249154 C40.5879603,90.9249154 43.3645129,93.9906913 44.0951847,96.3265205 C44.8258564,98.8083391 46.5794687,100.122243 49.3560213,100.122243 L58.7086198,100.122243 C60.9006351,100.122243 62.6542473,98.3703711 62.6542473,96.1805312 C62.6542473,91.6548621 60.3160977,87.2751822 55.6397984,82.7495131 C50.9634992,78.2238439 44.3874534,76.034004 36.0577954,76.034004 C28.8972122,76.034004 22.6134351,78.0778546 17.3525985,82.1655558 C12.2378962,86.2532569 9.60747786,91.5088727 9.60747786,97.9324031 C9.60747786,111.6554 22.4673007,116.473048 32.4044366,120.122781 C39.2727511,122.604599 44.8258564,125.670375 44.8258564,129.904066 C44.8258564,133.553799 42.0493038,136.911554 36.0577954,136.911554 C31.0892275,136.911554 27.8742717,135.159682 26.4129282,131.509948 C25.3899878,129.02813 23.6363756,127.714226 20.8598229,127.714226 L11.9456275,127.714226 C9.75361221,127.714226 8,129.466098 8,131.655938 C8,136.035618 10.3381496,140.561287 15.1605832,145.086956 C19.9830168,149.612625 26.8513313,151.948454 35.7655267,151.948454 Z M112.020406,185.826749 L110.266794,184.658834 L110.266794,210.498945 C110.266794,212.688785 108.513182,214.440657 106.321166,214.440657 L95.9456275,214.440657 C93.7536122,214.440657 92,212.688785 92,210.498945 L92,119.109626 C92,116.919787 93.7536122,115.167915 95.9456275,115.167915 L104.859823,115.167915 C107.051838,115.167915 108.80545,116.919787 108.80545,119.109626 L108.80545,120.277541 C113.043347,116.043851 118.450318,114 125.318632,114 C132.479215,114 138.616858,116.335829 143.73156,121.153477 C148.846263,125.825136 151.330546,131.664709 151.330546,138.818186 L151.330546,164.512307 C151.330546,171.811774 148.846263,177.797336 143.73156,182.614984 C138.616858,187.286642 132.62535,189.622472 125.610901,189.622472 C119.765527,189.622472 114.212421,187.578621 112.020406,185.826749 Z M235.266794,26.9417118 L235.266794,55.7016093 C238.920153,52.3438548 244.034855,50.7379722 250.610901,50.7379722 C257.62535,50.7379722 263.616858,53.0738014 268.73156,57.8914492 C273.846263,62.5631077 276.330546,68.5486701 276.330546,75.8481365 L276.330546,101.542258 C276.330546,108.695735 273.846263,114.535308 268.73156,119.352956 C263.616858,124.024615 257.479215,126.360444 250.318632,126.360444 C243.450318,126.360444 238.043347,124.316593 233.80545,120.082903 L233.80545,121.250817 C233.80545,123.440657 232.051838,125.192529 229.859823,125.192529 L220.945627,125.192529 C218.753612,125.192529 217,123.440657 217,121.250817 L217,26.9417118 C217,24.7518719 218.753612,23 220.945627,23 L231.321166,23 C233.513182,23 235.266794,24.7518719 235.266794,26.9417118 Z M390.522562,79.8176478 C391.545502,80.5475944 391.983905,81.4235304 391.983905,82.591445 C391.983905,83.3213917 391.691637,84.0513383 391.253234,84.7812849 L386.284666,91.7887726 C385.553994,92.6647086 384.677188,93.1026766 383.654247,93.1026766 C382.777441,93.1026766 382.046769,92.8106979 381.316098,92.37273 C373.570977,87.2631035 362.903169,91.3508047 363.633841,100.110164 L363.633841,105.657759 L386.576934,105.657759 C388.476681,105.657759 390.230293,107.263641 390.230293,109.161503 L390.230293,117.336905 C390.230293,119.234766 388.476681,120.840649 386.576934,120.840649 L363.633841,120.840649 L363.633841,174.710711 C363.633841,176.900551 361.880229,178.652422 359.688214,178.652422 L349.604943,178.652422 C347.412928,178.652422 345.659316,176.900551 345.659316,174.710711 L345.659316,120.840649 L332.653359,120.840649 C330.753612,120.840649 329,119.234766 329,117.336905 L329,109.161503 C329,107.263641 330.753612,105.657759 332.653359,105.657759 L345.659316,105.657759 L345.659316,100.548132 C345.659316,93.2486659 348.289734,87.1171142 353.404437,82.2994664 C358.519139,77.4818186 365.095185,75 373.132574,75 C380.147023,75 385.992397,76.6058826 390.522562,79.8176478 Z M472.788075,44.4272962 L472.788075,57.6223866 L484.280923,53.6809959 C485.481668,53.5096311 486.167809,53.3382663 486.510879,53.3382663 C487.711624,53.3382663 488.569299,54.3664552 489.255439,56.2514681 L491.31386,62.0778716 C491.31386,62.5919661 492,64.1342494 492,64.8197086 C492,66.1906271 491.142325,67.2188159 489.598509,67.7329104 L477.247986,72.1883954 L485.138598,82.470284 C485.481668,83.1557433 485.653203,83.8412025 485.653203,84.5266617 C485.653203,85.7262154 484.967063,86.7544043 483.594783,87.6112283 L477.934127,91.8953486 C477.419521,92.5808078 476.561846,92.9235374 475.704171,92.9235374 C474.503426,92.9235374 473.645751,92.409443 472.788075,91.3812541 L465.068999,81.2707304 L457.349922,91.552619 C456.835317,92.409443 456.149176,92.9235374 454.948431,92.9235374 C453.919221,92.9235374 453.061546,92.5808078 452.20387,91.7239838 L446.028609,87.4398635 C444.999399,86.5830395 444.484794,85.5548506 444.484794,84.5266617 C444.484794,83.8412025 444.656329,83.1557433 444.999399,82.470284 L452.546941,72.1883954 L440.367953,68.07564 C438.824137,67.5615456 438.137997,66.3619919 438.137997,64.8197086 C438.137997,63.9628845 438.309532,63.1060605 438.652602,62.0778716 L440.539488,56.2514681 C441.225628,54.3664552 442.254838,53.3382663 443.627118,53.3382663 C443.798653,53.3382663 444.484794,53.5096311 445.857074,53.6809959 L457.349922,57.6223866 L457.349922,44.4272962 C457.349922,42.5422833 459.236807,41 461.466763,41 L468.671234,41 C470.90119,41 472.788075,42.5422833 472.788075,44.4272962 Z"/>
  <g></g><g></g><g></g><g></g><g></g><g></g><g></g><g></g><g></g><g></g><g></g><g></g><g></g><g></g><g></g><g></g><g></g><g></g><g></g><g></g><g></g><g></g><g></g><g></g><g></g><g></g><g></g><g></g><g></g><g></g><g></g><g></g><g></g><g></g><g></g><g></g><g></g><g></g><g></g><g></g><g></g><g></g><g></g><g></g><g></g><g></g><g></g><g></g><g></g><g></g><g></g><g></g><g></g><g></g><g></g><g></g><g></g><g></g><g></g><g></g><g></g><g></g><g></g><g></g><g></g><g></g><g></g><g></g><g></g><g></g><g></g><g></g><g></g><g></g><g></g><g></g><g></g><g></g><g></g><g></g><g></g><g></g><g></g><g></g><g></g><g></g><g></g><g></g><g></g><g></g><g></g><g></g><g></g><g></g><g></g><g></g><g></g><g></g><g></g><g></g><g></g><g></g><g></g><g></g><g></g><g></g><g></g><g></g><g></g><g></g><g></g><g></g><g></g><g></g><g></g><g></g><g></g><g></g><g></g><g></g><g></g><g></g><g></g><g></g><g></g><g></g><g></g><g></g><g></g><g></g><g></g><g></g><g></g><g></g><g></g><g></g><g></g><g></g><g></g><g></g><g></g><g></g><g></g><g></g><g></g><g></g><g></g><g></g><g></g><g></g><g></g><g></g><g></g><g></g><g></g><g></g><g></g><g></g><g></g><g></g><g></g><g></g><g></g><g></g><g></g><g></g><g></g><g></g><g></g><g></g><g></g><g></g><g></g><g></g><g></g><g></g><g></g><g></g><g></g><g></g><g></g><g></g><g></g><g></g><g></g><g></g><g></g><g></g><g></g><g></g><g></g><g></g><g></g><g></g><g></g><g></g><g></g><g></g><g></g><g></g><g></g><g></g><g></g><g></g><g></g><g></g><g></g><g></g><g></g><g></g><g></g><g></g><g></g><g></g><g></g><g></g><g></g><g></g><g></g><g></g><g></g><g></g><g></g><g></g><g></g><g></g><g></g><g></g><g></g><g></g><g></g><g></g><g></g><g></g><g></g><g></g><g></g><g></g><g></g><g></g><g></g><g></g><g></g><g></g><g></g><g></g><g></g><g></g><g></g><g></g><g></g><g></g><g></g><g></g><g></g><g></g><g></g><g></g><g></g><g></g><g></g><g></g><g></g><g></g><g></g><g></g><g></g><g></g><g></g><g></g><g></g><g></g><g></g><g></g><g></g><g></g><g></g><g></g><g></g><g></g><g></g><g></g><g></g><g></g><g></g><g></g><g></g><g></g><g></g><g></g><g></g><g></g><g></g><g></g><g></g><g></g><g></g><g></g><g></g><g></g><g></g><g></g><g></g><g></g><g></g><g></g><g></g><g></g><g></g><g></g><g></g><g></g><g></g><g></g><g></g><g></g><g></g><g></g><g></g><g></g><g></g><g></g><g></g><g></g><g></g><g></g><g></g><g></g><g></g><g></g><g></g><g></g><g></g><g></g><g></g><g></g><g></g><g></g><g></g><g></g><g></g><g></g><g></g><g></g><g></g><g></g><g></g><g></g><g></g><g></g><g></g><g></g><g></g><g></g><g></g><g></g><g></g><g></g><g></g><g></g><g></g><g></g><g></g><g></g><g></g><g></g><g></g><g></g><g></g><g></g><g></g><g></g><g></g><g></g><g></g><g></g><g></g><g></g><g></g><g></g><g></g><g></g><g></g><g></g><g></g><g></g><g></g><g></g><g></g><g></g><g></g><g></g><g></g><g></g><g></g><g></g><g></g><g></g><g></g><g></g><g></g><g></g><g></g><g></g><g></g><g></g><g></g><g></g><g></g><g></g><g></g><g></g><g></g><g></g><g></g><g></g><g></g><g></g><g></g><g></g><g></g><g></g><g></g><g></g><g></g><g></g><g></g><g></g><g></g><g></g><g></g><g></g><g></g><g></g><g></g><g></g><g></g><g></g><g></g><g></g><g></g><g></g><g></g><g></g><g></g><g></g><g></g><g></g><g></g><g></g><g></g><g></g><g></g><g></g><g></g><g></g><g></g><g></g><g></g><g></g><g></g><g></g><g></g><g></g><g></g><g></g><g></g><g></g><g></g><g></g><g></g><g></g><g></g><g></g><g></g><g></g><g></g><g></g><g></g><g></g><g></g><g></g><g></g><g></g><g></g><g></g><g></g><g></g><g></g><g></g><g></g><g></g><g></g><g></g><g></g><g></g><g></g><g></g><g></g><g></g><g></g><g></g><g></g><g></g><g></g><g></g><g></g><g></g><g></g><g></g><g></g><g></g><g></g><g></g><g></g><g></g><g></g><g></g><g></g><g></g><g></g><g></g><g></g><g></g><g></g><g></g><g></g><g></g><g></g><g></g><g></g><g></g><g></g><g></g><g></g><g></g><g></g><g></g><g></g><g></g><g></g><g></g><g></g><g></g><g></g><g></g><g></g><g></g><g></g><g></g><g></g><g></g><g></g><g></g><g></g><g></g><g></g><g></g><g></g><g></g><g></g><g></g><g></g><g></g><g></g><g></g><g></g><g></g><g></g><g></g><g></g><g></g><g></g><g></g><g></g><g></g><g></g><g></g><g></g><g></g><g></g><g></g><g></g><g></g><g></g><g></g><g></g><g></g><g></g><g></g><g></g><g></g><g></g><g></g><g></g><g></g><g></g><g></g><g></g><g></g><g></g><g></g><g></g><g></g><g></g><g></g><g></g><g></g><g></g><g></g><g></g><g></g><g></g><g></g><g></g><g></g><g></g><g></g><g></g><g></g><g></g><g></g><g></g><g></g><g></g><g></g><g></g><g></g><g></g><g></g><g></g><g></g><g></g><g></g><g></g><g></g><g></g><g></g><g></g><g></g><g></g><g></g><g></g><g></g><g></g><g></g><g></g><g></g><g></g><g></g><g></g><g></g><g></g><g></g><g></g><g></g><g></g><g></g><g></g><g></g><g></g><g></g><g></g><g></g><g></g><g></g><g></g><g></g><g></g><g></g><g></g><g></g><g></g><g></g><g></g><g></g><g></g><g></g><g></g><g></g><g></g><g></g><g></g><g></g><g></g><g></g><g></g><g></g><g></g><g></g><g></g><g></g><g></g><g></g><g></g><g></g><g></g><g></g><g></g><g></g><g></g><g></g><g></g><g></g><g></g><g></g><g></g><g></g><g></g><g></g><g></g><g></g><g></g><g></g><g></g><g></g><g></g><g></g><g></g><g></g><g></g><g></g><g></g><g></g><g></g><g></g><g></g><g></g><g></g><g></g><g></g><g></g><g></g><g></g><g></g><g></g><g></g><g></g><g></g><g></g><g></g><g></g><g></g><g></g><g></g><g></g><g></g><g></g><g></g><g></g><g></g><g></g><g></g><g></g><g></g><g></g><g></g><g></g><g></g><g></g><g></g><g></g><g></g><g></g><g></g><g></g><g></g><g></g><g></g><g></g><g></g><g></g><g></g><g></g><g></g><g></g><g></g><g></g><g></g><g></g><g></g><g></g><g></g><g></g><g></g><g></g><g></g><g></g><g></g><g></g><g></g><g></g><g></g><g></g><g></g><g></g><g></g><g></g><g></g><g></g><g></g><g></g><g></g><g></g><g></g><g></g><g></g><g></g><g></g><g></g><g></g><g></g><g></g><g></g><g></g><g></g><g></g><g></g><g></g><g></g><g></g><g></g><g></g><g></g><g></g><g></g><g></g><g></g><g></g><g></g><g></g><g></g><g></g><g></g><g></g><g></g><g></g><g></g><g></g><g></g><g></g><g></g><g></g><g></g><g></g><g></g><g></g><g></g><g></g><g></g><g></g><g></g><g></g><g></g><g></g><g></g><g></g><g></g><g></g><g></g><g></g><g></g><g></g><g></g><g></g><g></g><g></g><g></g><g></g><g></g><g></g><g></g><g></g><g></g><g></g><g></g><g></g><g></g><g></g><g></g><g></g><g></g><g></g><g></g><g></g><g></g><g></g><g></g><g></g><g></g><g></g><g></g><g></g><g></g><g></g><g></g><g></g><g></g><g></g><g></g><g></g><g></g><g></g><g></g><g></g><g></g><g></g><g></g><g></g><g></g><g></g><g></g><g></g><g></g><g></g><g></g><g></g><g></g><g></g><g></g><g></g><g></g><g></g><g></g><g></g><g></g><g></g><g></g><g></g><g></g><g></g><g></g><g></g><g></g><g></g><g></g><g></g><g></g><g></g><g></g><g></g><g></g><g></g><g></g><g></g><g></g><g></g><g></g><g></g>
</svg>

<svg xmlns="http://www.w3.org/2000/svg" width="500" height="238"><path fill="#00dd3b" fill-rule="evenodd" d="M35.766 151.948c7.452 0 14.028-2.19 19.435-6.715 5.554-4.526 8.33-9.781 8.33-15.913 0-19.854-23.09-22.19-32.442-26.862-7.16-4.088-2.484-11.533 4.677-11.533 4.822 0 7.599 3.066 8.33 5.402.73 2.481 2.483 3.795 5.26 3.795h9.353a3.927 3.927 0 0 0 3.945-3.941c0-4.526-2.338-8.906-7.014-13.431-4.677-4.526-11.253-6.716-19.582-6.716-7.16 0-13.445 2.044-18.705 6.132-5.115 4.087-7.746 9.343-7.746 15.766 0 13.723 12.86 18.541 22.797 22.19 6.869 2.483 12.422 5.548 12.422 9.782 0 3.65-2.777 7.008-8.768 7.008-4.969 0-8.184-1.752-9.645-5.402-1.023-2.482-2.777-3.796-5.553-3.796h-8.914A3.927 3.927 0 0 0 8 131.656c0 4.38 2.338 8.905 7.16 13.431 4.823 4.526 11.691 6.861 20.606 6.861zm76.254 33.879l-1.753-1.168v25.84a3.927 3.927 0 0 1-3.946 3.942H95.946A3.927 3.927 0 0 1 92 210.499v-91.39a3.927 3.927 0 0 1 3.946-3.941h8.914a3.927 3.927 0 0 1 3.945 3.942v1.168c4.238-4.234 9.645-6.278 16.514-6.278 7.16 0 13.298 2.336 18.413 7.153 5.114 4.672 7.599 10.512 7.599 17.665v25.694c0 7.3-2.485 13.285-7.6 18.103-5.114 4.672-11.106 7.007-18.12 7.007-5.845 0-11.399-2.043-13.59-3.795zM235.267 26.942v28.76c3.653-3.358 8.768-4.964 15.344-4.964 7.014 0 13.006 2.336 18.12 7.153 5.115 4.672 7.6 10.658 7.6 17.957v25.694c0 7.154-2.485 12.993-7.6 17.811-5.114 4.672-11.252 7.007-18.412 7.007-6.869 0-12.276-2.043-16.514-6.277v1.168a3.927 3.927 0 0 1-3.945 3.942h-8.914A3.927 3.927 0 0 1 217 121.25V26.94A3.927 3.927 0 0 1 220.946 23h10.375a3.927 3.927 0 0 1 3.946 3.942zm155.256 52.876c1.023.73 1.46 1.606 1.46 2.773 0 .73-.291 1.46-.73 2.19l-4.968 7.008c-.731.876-1.608 1.314-2.63 1.314-.878 0-1.608-.292-2.339-.73-7.745-5.11-18.413-1.022-17.682 7.737v5.548h22.943c1.9 0 3.653 1.606 3.653 3.504v8.175c0 1.898-1.753 3.504-3.653 3.504h-22.943v53.87a3.927 3.927 0 0 1-3.946 3.941h-10.083a3.927 3.927 0 0 1-3.946-3.941v-53.87h-13.006c-1.9 0-3.653-1.606-3.653-3.504v-8.175c0-1.898 1.754-3.504 3.653-3.504h13.006v-5.11c0-7.3 2.63-13.43 7.745-18.249C358.52 77.482 365.095 75 373.133 75c7.014 0 12.86 1.606 17.39 4.818zm82.265-35.39v13.194l11.493-3.941c1.2-.171 1.887-.343 2.23-.343 1.2 0 2.058 1.028 2.744 2.913l2.059 5.827c0 .514.686 2.056.686 2.742 0 1.37-.858 2.399-2.401 2.913l-12.351 4.455 7.89 10.282c.344.686.515 1.371.515 2.057 0 1.2-.686 2.227-2.058 3.084l-5.66 4.284c-.515.686-1.373 1.029-2.23 1.029-1.202 0-2.06-.515-2.917-1.543l-7.719-10.11-7.72 10.282c-.514.856-1.2 1.37-2.4 1.37-1.03 0-1.887-.342-2.745-1.199l-6.175-4.284c-1.03-.857-1.544-1.885-1.544-2.913 0-.686.171-1.371.514-2.057l7.548-10.282-12.179-4.112c-1.544-.514-2.23-1.714-2.23-3.256 0-.857.172-1.714.515-2.742l1.886-5.827c.687-1.885 1.716-2.913 3.088-2.913.172 0 .858.172 2.23.343l11.493 3.941V44.427c0-1.885 1.887-3.427 4.117-3.427h7.204c2.23 0 4.117 1.542 4.117 3.427z"/></svg>
